Suru++-Ubuntu/apps/symbolic/hexchat-symbolic.svg

<svg width="16" height="16" version="1.1" xmlns="http://www.w3.org/2000/svg">
 <path d="m7.9297599 1.9545281c-1.712485 0.0151181-3.4232465 0.1171654-3.74609 0.2966929-0.6456793 0.3586772-3.6912338 5.4366236-3.6836558 6.1419968 0.0076 0.705411 3.1630713 5.7253032 3.8163361 6.0718102 0.6532536 0.346583 6.8543058 0.296315 7.4999798-0.06236 0.645676-0.359055 3.691234-5.4366608 3.683653-6.142034-0.007559-0.705413-3.163064-5.7330917-3.816325-6.0795988-0.326626-0.1731024-2.041413-0.2426457-3.7538981-0.2263937zm0.015496 1.2642898c1.3391017-0.011339 2.6712231 0.048 2.9266361 0.1874646 0.0155 0.00756 0.0359 0.030236 0.05461 0.046866l-2.8173884 3.1451717-0.1248755 0.1326614-0.117052-0.1326614-2.9344403-3.074948c0.027213-0.026457 0.056995-0.050268 0.078047-0.062362 0.2524346-0.1443779 1.5953385-0.2290393 2.9344364-0.2418897zm4.5109141 2.364737c0.720208 1.1641322 1.401676 2.410696 1.404783 2.708107 0.0034 0.3223937-0.765373 1.7700291-1.521846 3.0202961l-2.7705666-2.4740032-0.1326614-0.1171653 0.1248756-0.1171654zm-8.9359886 0.00756 2.7081146 3.0124724 0.1092662 0.1171654-0.117052 0.1092283-2.5676371 2.474003c-0.7609361-1.21527-1.5107679-2.5892418-1.5140523-2.9032449-0.00319-0.303874 0.6716145-1.6112882 1.381372-2.8095496zm4.4640944 4.4406801 0.1092662 0.109229 3.082723 2.895382c-0.07941 0.09146-0.146608 0.159496-0.1951 0.187464-0.504896 0.288756-5.350246 0.348851-5.8610718 0.0703-0.056995-0.03024-0.150274-0.119433-0.2497512-0.233952l2.996863-2.918815z" style="fill:#808080"/>
</svg>

<svg xmlns="http://www.w3.org/2000/svg" width="16" height="16" version="1.1">
 <path d="M 7.9297599,1.9545281 C 6.2172749,1.9696462 4.5065134,2.0716935 4.1836699,2.251221 3.5379906,2.6098982 0.49243612,7.6878446 0.50001412,8.3932178 c 0.0076,0.705411 3.16307128,5.7253032 3.81633608,6.0718102 0.6532536,0.346583 6.8543058,0.296315 7.4999798,-0.06236 0.645676,-0.359055 3.691234,-5.4366608 3.683653,-6.142034 C 15.492424,7.555221 12.336919,2.5275423 11.683658,2.1810352 11.357032,2.0079328 9.642245,1.9383895 7.9297599,1.9546415 Z m 0.015496,1.2642898 c 1.3391017,-0.011339 2.6712231,0.048 2.9266361,0.1874646 0.0155,0.00756 0.0359,0.030236 0.05461,0.046866 L 8.1091136,6.5983202 7.9842381,6.7309816 7.8671861,6.5983202 4.9327458,3.5233722 c 0.027213,-0.026457 0.056995,-0.050268 0.078047,-0.062362 C 5.2632274,3.3166323 6.6061313,3.2319709 7.9452292,3.2191205 Z m 4.5109141,2.364737 c 0.720208,1.1641322 1.401676,2.410696 1.404783,2.708107 0.0034,0.3223937 -0.765373,1.7700291 -1.521846,3.0202961 L 9.5685404,8.8379548 9.435879,8.7207895 9.5607546,8.6036241 Z M 3.5201814,5.5911149 6.228296,8.6035873 6.3375622,8.7207527 6.2205102,8.829981 3.6528731,11.303984 C 2.891937,10.088714 2.1421052,8.7147422 2.1388208,8.4007391 2.1356308,8.0968651 2.8104353,6.7894509 3.5201928,5.5911895 Z m 4.4640944,4.4406801 0.1092662,0.109229 3.082723,2.895382 c -0.07941,0.09146 -0.146608,0.159496 -0.1951,0.187464 -0.504896,0.288756 -5.350246,0.348851 -5.8610718,0.0703 -0.056995,-0.03024 -0.150274,-0.119433 -0.2497512,-0.233952 l 2.996863,-2.918815 z" style="fill:#808080"/>
</svg>
